NeoWeb/wwwroot/images/consensus/BlockHeight.svg

<svg viewBox="0 0 48 48" xmlns="http://www.w3.org/2000/svg"><path d="m23.61 9.73-11.46 6.62a1 1 0 0 0 -.5.87v13.24a1 1 0 0 0 .5.86l11.46 6.62a1 1 0 0 0 1 0l11.47-6.62a1 1 0 0 0 .5-.86v-13.24a1 1 0 0 0 -.5-.87l-11.47-6.62a1 1 0 0 0 -1 0z" fill="#2b393f"/><g fill="#02e49b"><path d="m23.61 3.35-7.39 4.27a.5.5 0 0 0 0 .85l1.46.92a1 1 0 0 0 1 0l4.91-2.83a1 1 0 0 1 1 0l4.91 2.83a1 1 0 0 0 1 0l1.5-.92a.5.5 0 0 0 0-.85l-7.39-4.27a1 1 0 0 0 -1 0z"/><path d="m23.61 44.64-7.39-4.27a.5.5 0 0 1 0-.85l1.46-.92a1 1 0 0 1 1 0l4.91 2.84a1 1 0 0 0 1 0l4.91-2.84a1 1 0 0 1 1 0l1.46.92a.5.5 0 0 1 0 .85l-7.39 4.27a1 1 0 0 1 -.96 0z"/></g></svg>

<svg id="Layer_1" data-name="Layer 1" xmlns="http://www.w3.org/2000/svg" viewBox="0 0 48 48"><defs><style>.cls-1{fill:#2b393f;}.cls-2{fill:#02e49b;}</style></defs><title>Artboard 88</title><path class="cls-1" d="M23.61,9.73,12.15,16.35a1,1,0,0,0-.5.87V30.46a1,1,0,0,0,.5.86l11.46,6.62a1,1,0,0,0,1,0l11.47-6.62a1,1,0,0,0,.5-.86V17.22a1,1,0,0,0-.5-.87L24.61,9.73A1,1,0,0,0,23.61,9.73Z"/><path class="cls-2" d="M23.61,3.35,16.22,7.62a.5.5,0,0,0,0,.85l1.46.92a1,1,0,0,0,1,0l4.91-2.83a1,1,0,0,1,1,0l4.91,2.83a1,1,0,0,0,1,0L32,8.47a.5.5,0,0,0,0-.85L24.61,3.35A1,1,0,0,0,23.61,3.35Z"/><path class="cls-2" d="M23.61,44.64l-7.39-4.27a.5.5,0,0,1,0-.85l1.46-.92a1,1,0,0,1,1,0l4.91,2.84a1,1,0,0,0,1,0l4.91-2.84a1,1,0,0,1,1,0l1.46.92a.5.5,0,0,1,0,.85l-7.39,4.27A1,1,0,0,1,23.61,44.64Z"/></svg>
